icon/pk/aquarius.svg

<svg width="48" height="48" fill="none" xmlns="http://www.w3.org/2000/svg"><path d="M4 20 14 8l6 9 8-9 7 11 9-9.957M4 40l10-12 6 9 8-9 7 11 9-9.956" stroke="#000" stroke-width="4" stroke-linecap="round" stroke-linejoin="round"/></svg>

<svg viewBox="0 0 48 48" fill="none" xmlns="http://www.w3.org/2000/svg" height="1em" width="1em">
  <path d="M4 20L14 8L20 17L28 8L35 19L44 9.04348" stroke="black" stroke-width="4" stroke-linecap="round" stroke-linejoin="round"/>
  <path d="M4 40L14 28L20 37L28 28L35 39L44 29.0435" stroke="black" stroke-width="4" stroke-linecap="round" stroke-linejoin="round"/>
</svg>
